Obsidian-SemiLight/actions/16s/transform-affect-stroke.svg

<svg viewBox="0 0 16 16" xmlns="http://www.w3.org/2000/svg"><path d="m2 2v2h10v7h2v-9zm0 4v1h7v4h1v-5z" fill="#4d4d4d"/><path d="m5.17 14.33-.707-.707 1.621-1.621h-4.076v-1h4.076l-1.621-1.621.707-.707 2.828 2.828-.707.707z" fill="#3daee9"/></svg>

<svg xmlns="http://www.w3.org/2000/svg" viewBox="0 0 16 16">
  <defs id="defs3051">
    <style type="text/css" id="current-color-scheme">
      .ColorScheme-Text {
        color:#4d4d4d;
      }
      .ColorScheme-Highlight {
        color:#3daee9;
      }
      </style>
  </defs>
 <path 
     style="fill:currentColor;fill-opacity:1;stroke:none" 
     d="M 2 2 L 2 4 L 12 4 L 12 11 L 14 11 L 14 2 L 2 2 z M 2 6 L 2 7 L 9 7 L 9 11 L 10 11 L 10 6 L 2 6 z "
     class="ColorScheme-Text"/>
  <path
     style="fill:currentColor;fill-opacity:1;stroke:none" 
     d="m 5.17,14.33 -0.707,-0.707 1.621,-1.621 -4.076,0 0,-1 4.076,0 L 4.463,9.381 5.17,8.674 7.998,11.502 7.291,12.209 Z"
     class="ColorScheme-Highlight"/>
</svg>
